assets/icons/novelty.svg

<svg xmlns="http://www.w3.org/2000/svg" xml:space="preserve" width="512" height="512" viewBox="0 0 135.46666 135.46667"><path d="m 101.59999,0 c 18.70405,-5.5228478e-7 33.86667,15.162623 33.86667,33.866666 V 101.6 c 0,18.70404 -15.16263,33.86666 -33.86667,33.86666 H 0 V 0 Z" style="fill:#000;fill-opacity:1;stroke-width:4.23333;stroke-miterlimit:128;paint-order:stroke fill markers"/><path d="M 8.4666666,8.4666666 V 101.6 H 127 V 33.866666 C 127,19.838662 115.62799,8.4666666 101.6,8.4666666 Z M 100.54726,16.933333 c 1.16939,-2.76e-4 2.11746,0.947789 2.11718,2.117184 0,8.819448 -2.03832,26.197053 -13.320111,37.478848 l -7.847583,7.847583 v 9.706901 c 2.7e-5,0.561009 -0.222641,1.09909 -0.619083,1.496033 L 63.943296,92.513732 C 62.609982,93.846071 60.33128,92.9026 60.33008,91.017699 v -9.706901 l -1.696537,-1.696537 -4.95577,8.258927 c -0.70923,1.179053 -2.337156,1.378795 -3.310392,0.406177 L 31.316347,69.230399 c -0.974046,-0.973994 -0.773143,-2.604109 0.408244,-3.31246 L 39.983002,60.96372 38.286981,59.267699 H 28.58008 c -1.88731,6.1e-4 -2.831906,-2.282096 -1.496032,-3.615283 L 44.017381,38.720117 c 0.396727,-0.397329 0.935064,-0.620766 1.496549,-0.621151 h 9.706384 L 63.066347,30.25345 C 74.348147,18.971649 91.727802,16.933332 100.54726,16.933333 Z m -2.170927,4.286043 c -3.780755,0.159659 -8.704449,0.745377 -13.826026,2.122868 l 11.703678,11.703678 c 1.377368,-5.121701 1.962798,-10.04598 2.122348,-13.826546 z m -18.37872,3.556889 c -5.060955,1.844011 -10.018457,4.550572 -13.937134,8.469251 l -23.904483,23.905 20.291267,20.290751 3.357418,-3.357418 -8.211902,-8.209835 c -0.827075,-0.82669 -0.827074,-2.167441 0,-2.994132 0.826691,-0.827077 2.167441,-0.827076 2.994133,0 L 68.79778,71.09075 86.350197,53.5373 c 3.919189,-3.919191 6.625743,-8.877559 8.469767,-13.939201 z m -8.02535,13.323218 c 5.260474,4.2e-5 9.524958,4.264525 9.525,9.525 2.43e-4,5.260672 -4.264326,9.525476 -9.525,9.525516 -5.260879,2.43e-4 -9.525759,-4.264641 -9.525516,-9.525516 4.3e-5,-5.260676 4.264839,-9.525242 9.525516,-9.525 z m 0,4.233333 c -2.922687,-2.61e-4 -5.292162,2.368979 -5.292183,5.291667 -2.63e-4,2.922888 2.369294,5.292447 5.292183,5.292183 2.922688,-2.1e-5 5.291928,-2.369498 5.291667,-5.292183 -2.4e-5,-2.922484 -2.369183,-5.291643 -5.291667,-5.291667 z m -25.581384,5.17e-4 -12.70155,12.7 h 4.595585 l 12.700517,-12.7 z m 5.962944,13.190926 c 0.570295,0.04499 1.084266,0.201992 1.498099,0.620634 L 56.09623,58.3892 c 0.827086,0.826689 0.827086,2.167442 0,2.994133 -0.826512,0.826051 -2.166069,0.826051 -2.992582,0 L 50.85779,59.139025 c -0.827086,-0.826691 -0.827086,-2.167441 0,-2.994132 0.396675,-0.397034 0.934796,-0.620275 1.496033,-0.620634 z m -9.284705,8.525577 -6.840409,4.104659 15.214575,15.216642 4.104659,-6.842476 z M 77.264447,68.608731 64.56238,81.310798 v 4.595585 L 77.264447,73.2069 Z" style="display:inline;fill:#894efa;fill-opacity:1;stroke-width:4.23333;stroke-miterlimit:128;paint-order:stroke fill markers"/><path d="m 48.881429,112.18333 c -0.726038,0 -1.410092,0.13946 -2.052356,0.41871 -0.642263,0.27924 -1.200687,0.65642 -1.675403,1.13113 -0.474717,0.48868 -0.851894,1.04706 -1.131139,1.68933 -0.279245,0.64226 -0.418709,1.32631 -0.418709,2.05235 0,0.72604 0.139464,1.41038 0.418709,2.05264 0.279245,0.64227 0.656422,1.20069 1.131139,1.67541 0.474716,0.48868 1.03314,0.86553 1.675403,1.14477 0.642264,0.27925 1.326318,0.41899 2.052356,0.41899 0.726037,0 1.410091,-0.13974 2.052355,-0.41899 0.642263,-0.27924 1.200928,-0.65609 1.689606,-1.14477 0.474717,-0.47472 0.851611,-1.03314 1.130855,-1.67541 0.279245,-0.64226 0.418993,-1.3266 0.418993,-2.05264 0,-0.72604 -0.139748,-1.41009 -0.418993,-2.05235 -0.279244,-0.64227 -0.656138,-1.20065 -1.130855,-1.68933 -0.488678,-0.47471 -1.047343,-0.85189 -1.689606,-1.13113 -0.642264,-0.27925 -1.326318,-0.41871 -2.052355,-0.41871 z m -16.182218,0.18152 c -0.09774,0 -0.167665,0.0279 -0.237477,0.0977 -0.06981,0.0698 -0.09772,0.13945 -0.09772,0.23718 v 9.5502 c 0,0.0977 0.02791,0.16767 0.09772,0.23748 0.06981,0.0698 0.139741,0.0977 0.237477,0.0977 h 2.080478 c 0.09774,0 0.167381,-0.0279 0.237192,-0.0977 0.06981,-0.0698 0.09772,-0.13974 0.09772,-0.23748 v -4.99837 c 0,-0.0977 0.02791,-0.15364 0.09772,-0.1676 0.05585,-0.014 0.111749,0.0279 0.167598,0.0977 l 3.644244,5.12421 c 0.05585,0.0698 0.139457,0.13959 0.237193,0.19544 0.09774,0.0559 0.195701,0.0838 0.293437,0.0838 h 2.066274 c 0.09774,0 0.167666,-0.0279 0.237477,-0.0977 0.06981,-0.0698 0.09772,-0.13974 0.09772,-0.23748 v -9.5502 c 0,-0.0977 -0.02791,-0.16737 -0.09772,-0.23718 -0.06981,-0.0698 -0.139741,-0.0977 -0.237477,-0.0977 h -2.066274 c -0.09774,0 -0.167666,0.0279 -0.237477,0.0977 -0.06981,0.0698 -0.09772,0.13945 -0.09772,0.23718 v 4.99866 c 0,0.0977 -0.02795,0.13943 -0.0838,0.15339 -0.06981,0.014 -0.125668,-0.0279 -0.181517,-0.0977 l -3.630041,-5.12393 c -0.05585,-0.0698 -0.139741,-0.13959 -0.237476,-0.19543 -0.09774,-0.0419 -0.195418,-0.0699 -0.293154,-0.0699 z m 22.339567,0 c -0.12566,0 -0.195306,0.0418 -0.237192,0.12555 -0.04189,0.0838 -0.04189,0.1815 0,0.27923 l 4.216347,9.50844 c 0.04189,0.0838 0.111903,0.15351 0.209638,0.20936 0.08377,0.0698 0.16758,0.0977 0.265315,0.0977 h 1.85692 c 0.09774,0 0.181499,-0.0279 0.279234,-0.0977 0.08377,-0.0558 0.153548,-0.12558 0.195435,-0.20936 l 4.258389,-9.56411 c 0.04189,-0.0698 0.02797,-0.1537 -0.01392,-0.23748 -0.04189,-0.0698 -0.125538,-0.11163 -0.223274,-0.11163 H 63.528 c -0.09774,0 -0.181541,0.028 -0.265315,0.0838 -0.09774,0.0698 -0.167752,0.13949 -0.209638,0.22326 l -2.443226,5.61281 c -0.04189,0.0838 -0.111706,0.12583 -0.181517,0.12583 -0.06981,0 -0.139629,-0.0421 -0.181516,-0.12583 l -2.457429,-5.61281 c -0.04189,-0.0838 -0.111662,-0.15345 -0.195436,-0.22326 -0.09774,-0.0558 -0.181497,-0.0838 -0.279233,-0.0838 z m 12.482297,0 c -0.09774,0 -0.167665,0.0279 -0.237477,0.0977 -0.06981,0.0698 -0.09772,0.13945 -0.09772,0.23718 v 9.5502 c 0,0.0977 0.02791,0.16767 0.09772,0.23748 0.06981,0.0698 0.139741,0.0977 0.237477,0.0977 h 7.106691 c 0.09774,0 0.167662,-0.0279 0.237474,-0.0977 0.06981,-0.0698 0.09772,-0.13974 0.09772,-0.23748 v -1.9268 c 0,-0.0977 -0.02792,-0.16738 -0.09772,-0.23719 -0.06981,-0.0698 -0.139738,-0.0977 -0.237474,-0.0977 h -4.342188 c -0.09774,0 -0.167382,-0.0279 -0.237193,-0.0977 -0.06981,-0.0698 -0.09801,-0.13975 -0.09801,-0.23748 v -0.53063 c 0,-0.0977 0.0282,-0.16738 0.09801,-0.23719 0.06981,-0.0698 0.139457,-0.0977 0.237193,-0.0977 h 3.783719 c 0.09774,0 0.167663,-0.0279 0.237474,-0.0977 0.06981,-0.0698 0.09772,-0.13974 0.09772,-0.23748 v -1.92679 c 0,-0.0977 -0.02792,-0.16767 -0.09772,-0.23748 -0.06981,-0.0698 -0.139738,-0.0977 -0.237474,-0.0977 h -3.783719 c -0.09774,0 -0.167382,-0.0279 -0.237193,-0.0977 -0.06981,-0.0698 -0.09801,-0.13945 -0.09801,-0.23719 v -0.58659 c 0,-0.0977 0.0282,-0.16738 0.09801,-0.23719 0.06981,-0.0698 0.139457,-0.0977 0.237193,-0.0977 h 4.342188 c 0.09774,0 0.167662,-0.0279 0.237474,-0.0977 0.06981,-0.0698 0.09772,-0.13974 0.09772,-0.23748 v -1.89896 c 0,-0.0977 -0.02792,-0.16737 -0.09772,-0.23718 -0.06981,-0.0698 -0.139738,-0.0977 -0.237474,-0.0977 z m 9.536279,0 c -0.09774,0 -0.181625,0.0279 -0.237474,0.0977 -0.06981,0.0698 -0.09772,0.13945 -0.09772,0.23718 v 9.5502 c 0,0.0977 0.02792,0.16767 0.09772,0.23748 0.05585,0.0698 0.139738,0.0977 0.237474,0.0977 h 6.967214 c 0.09774,0 0.167382,-0.0279 0.237194,-0.0977 0.06981,-0.0698 0.09771,-0.13974 0.09771,-0.23748 v -1.89867 c 0,-0.0977 -0.02792,-0.16767 -0.09771,-0.23748 -0.06981,-0.0698 -0.139458,-0.0977 -0.237194,-0.0977 h -4.202713 c -0.09774,0 -0.181625,-0.0279 -0.237474,-0.0977 -0.06981,-0.0698 -0.09772,-0.13974 -0.09772,-0.23748 v -6.98113 c 0,-0.0977 -0.02793,-0.16737 -0.09772,-0.23718 -0.06981,-0.0698 -0.139458,-0.0977 -0.237193,-0.0977 z m 8.167947,0 c -0.09774,0 -0.167663,0.0279 -0.237474,0.0977 -0.06981,0.0698 -0.09772,0.13945 -0.09772,0.23718 v 1.89896 c 0,0.0977 0.02792,0.16767 0.09772,0.23748 0.06981,0.0698 0.139738,0.0977 0.237474,0.0977 h 1.982477 c 0.09774,0 0.181586,0.0279 0.251397,0.0977 0.05585,0.0698 0.0838,0.13945 0.0838,0.23719 v 6.98113 c 0,0.0977 0.02792,0.16767 0.09772,0.23748 0.06981,0.0698 0.139739,0.0977 0.237474,0.0977 h 2.094115 c 0.09774,0 0.181586,-0.0279 0.251398,-0.0977 0.05585,-0.0698 0.08379,-0.13974 0.08379,-0.23748 v -6.98113 c 0,-0.0977 0.02792,-0.16738 0.09772,-0.23719 0.06981,-0.0698 0.139739,-0.0977 0.237474,-0.0977 h 1.954641 c 0.09774,0 0.181586,-0.0279 0.251397,-0.0977 0.05585,-0.0698 0.0838,-0.13974 0.0838,-0.23748 v -1.89896 c 0,-0.0146 -0.0049,-0.0252 -0.0063,-0.0386 0.0067,0.0368 0.01622,0.0728 0.03408,0.10851 0.572453,0.97736 1.158874,1.9268 1.745284,2.8483 0.572452,0.92151 1.145037,1.85707 1.703528,2.82046 0.04189,0.0698 0.08367,0.1675 0.125556,0.29316 0.02792,0.12566 0.04178,0.23746 0.04178,0.33519 v 3.18321 c 0,0.0977 0.02792,0.16767 0.09772,0.23747 0.06981,0.0698 0.139744,0.0977 0.237479,0.0977 h 2.108305 c 0.0977,0 0.16767,-0.0279 0.23748,-0.0977 0.0698,-0.0698 0.0977,-0.13973 0.0977,-0.23747 v -3.19713 c 0,-0.0977 0.0138,-0.19561 0.0557,-0.32127 0.0419,-0.12566 0.0839,-0.22331 0.12583,-0.30708 l 3.490574,-5.65484 c 0.0698,-0.12566 0.0976,-0.22333 0.0557,-0.29315 -0.0419,-0.0698 -0.11162,-0.0977 -0.20935,-0.0977 h -2.51311 c -0.0977,0 -0.18178,0.0279 -0.27952,0.0838 -0.0977,0.0558 -0.181394,0.12558 -0.223274,0.20935 l -1.70325,2.98806 c -0.0419,0.0698 -0.0978,0.11164 -0.16759,0.11164 -0.0698,0 -0.12571,-0.0418 -0.1676,-0.11164 l -1.717441,-2.98806 c -0.04189,-0.0838 -0.111616,-0.1535 -0.209351,-0.20935 -0.09774,-0.0559 -0.195423,-0.0838 -0.293158,-0.0838 h -2.485267 c -0.09774,0 -0.153591,0.0418 -0.181515,0.12556 -0.01281,0.0448 -0.01457,0.0864 -0.0111,0.12669 -0.01094,-0.0622 -0.03177,-0.11724 -0.07272,-0.16845 -0.06981,-0.0698 -0.153662,-0.0977 -0.251398,-0.0977 z m -36.343872,2.48526 c 0.349056,0 0.67029,0.0697 0.97746,0.20935 0.30717,0.15359 0.572505,0.33504 0.809864,0.57239 0.237358,0.23736 0.418888,0.51657 0.544549,0.8377 0.12566,0.32113 0.195435,0.65624 0.195435,1.0053 0,0.34906 -0.06977,0.68417 -0.195435,1.0053 -0.125661,0.32113 -0.307191,0.60035 -0.544549,0.8377 -0.237359,0.23736 -0.502694,0.43305 -0.809864,0.57268 -0.30717,0.15358 -0.628404,0.22327 -0.97746,0.22327 -0.349057,0 -0.670008,-0.0697 -0.977177,-0.22327 -0.30717,-0.13963 -0.572549,-0.33532 -0.795945,-0.57268 -0.237358,-0.23735 -0.418888,-0.51657 -0.544549,-0.8377 -0.12566,-0.32113 -0.195435,-0.65624 -0.195435,-1.0053 0,-0.34906 0.06977,-0.68417 0.195435,-1.0053 0.125661,-0.32113 0.307191,-0.60034 0.544549,-0.8377 0.223396,-0.23735 0.488775,-0.4188 0.795945,-0.57239 0.307169,-0.13962 0.62812,-0.20935 0.977177,-0.20935 z" style="font-size:25.4px;line-height:1;font-family:Heavitas;-inkscape-font-specification:Heavitas;letter-spacing:0;word-spacing:0;text-orientation:upright;display:inline;fill:#fff;stroke-width:4.23333;stroke-linecap:round;stroke-linejoin:round;stroke-miterlimit:128;paint-order:stroke fill markers"/></svg>

<svg xmlns="http://www.w3.org/2000/svg" xml:space="preserve" width="512" height="512" viewBox="0 0 135.46666 135.46667"><path d="m 101.59999,0 c 18.70405,-5.5228478e-7 33.86667,15.162623 33.86667,33.866666 V 101.6 c 0,18.70404 -15.16263,33.86666 -33.86667,33.86666 H 0 V 0 Z" style="fill:#000;fill-opacity:1;stroke-width:4.23333;stroke-miterlimit:128;paint-order:stroke fill markers"/><path d="M 8.4666666 8.4666666 L 8.4666666 101.6 L 127 101.6 L 127 33.866666 C 127 19.838648 115.62801 8.4666666 101.6 8.4666666 L 8.4666666 8.4666666 z M 100.54735 16.931266 C 101.71674 16.93099 102.66481 17.879051 102.66453 19.048449 C 102.66453 27.867914 100.62624 45.245479 89.344416 56.527298 L 81.496833 64.374881 L 81.496833 74.081782 C 81.49686 74.642791 81.274194 75.180872 80.87775 75.577815 L 63.943383 92.511665 C 62.610067 93.844008 60.331367 92.900537 60.330167 91.015632 L 60.330167 81.308731 L 58.63363 79.612194 L 53.67786 87.871121 C 52.968627 89.050176 51.340706 89.249918 50.367468 88.277298 L 31.316434 69.228332 C 30.342386 68.254336 30.543289 66.624222 31.724678 65.915872 L 39.983089 60.961653 L 38.287068 59.265632 L 28.580167 59.265632 C 26.692852 59.266242 25.748259 56.983539 27.084135 55.650349 L 44.017468 38.71805 C 44.414198 38.320721 44.952531 38.097284 45.514017 38.096899 L 55.220401 38.096899 L 63.066434 30.251383 C 74.348256 18.96956 91.727866 16.931265 100.54735 16.931266 z M 98.376423 21.217309 C 94.595659 21.376968 89.671982 21.962683 84.550394 23.340177 L 96.254072 35.043855 C 97.63145 29.922142 98.216873 24.997881 98.376423 21.217309 z M 79.9977 24.774198 C 74.936735 26.618212 69.979251 29.324763 66.060566 33.243448 L 42.156083 57.148449 L 62.44735 77.4392 L 65.804768 74.081782 L 56.096317 64.375398 C 55.269241 63.548706 55.269241 62.207959 56.096317 61.381266 C 56.92301 60.554188 58.263755 60.554189 59.090449 61.381266 L 68.797867 71.088683 L 86.350284 53.535233 C 90.269481 49.616034 92.976023 44.657685 94.820051 39.596032 L 79.9977 24.774198 z M 71.97235 38.097416 C 77.232834 38.097458 81.497308 42.361931 81.49735 47.622416 C 81.497593 52.8831 77.233034 57.147891 71.97235 57.147932 C 66.711461 57.148175 62.446591 52.883303 62.446834 47.622416 C 62.446877 42.36173 66.711663 38.097174 71.97235 38.097416 z M 71.97235 42.330749 C 69.049657 42.330488 66.680189 44.699722 66.680167 47.622416 C 66.679904 50.54531 69.049455 52.914862 71.97235 52.914599 C 74.895044 52.914577 77.264278 50.545108 77.264017 47.622416 C 77.263993 44.699925 74.894841 42.330773 71.97235 42.330749 z M 46.390966 42.331266 L 33.689416 55.031266 L 38.285001 55.031266 L 50.985518 42.331266 L 46.390966 42.331266 z M 50.85736 54.025642 A 2.1166649 2.1166649 0 0 1 52.35546 54.646276 L 54.599767 56.890584 A 2.1166649 2.1166649 0 0 1 54.599767 59.884716 A 2.1166649 2.1166649 0 0 1 51.607185 59.884716 L 49.361328 57.640409 A 2.1166649 2.1166649 0 0 1 49.361328 54.646276 A 2.1166649 2.1166649 0 0 1 50.85736 54.025642 z M 43.069205 64.047769 L 36.228796 68.152428 L 51.443371 83.36907 L 55.54803 76.526594 L 43.069205 64.047769 z M 77.264534 68.606664 L 64.562467 81.308731 L 64.562467 85.904316 L 77.264534 73.204833 L 77.264534 68.606664 z" style="display:inline;fill:#894efa;fill-opacity:1;stroke-width:4.23333;stroke-miterlimit:128;paint-order:stroke fill markers"/><path d="m 48.881429,112.18333 c -0.726038,0 -1.410092,0.13946 -2.052356,0.41871 -0.642263,0.27924 -1.200687,0.65642 -1.675403,1.13113 -0.474717,0.48868 -0.851894,1.04706 -1.131139,1.68933 -0.279245,0.64226 -0.418709,1.32631 -0.418709,2.05235 0,0.72604 0.139464,1.41038 0.418709,2.05264 0.279245,0.64227 0.656422,1.20069 1.131139,1.67541 0.474716,0.48868 1.03314,0.86553 1.675403,1.14477 0.642264,0.27925 1.326318,0.41899 2.052356,0.41899 0.726037,0 1.410091,-0.13974 2.052355,-0.41899 0.642263,-0.27924 1.200928,-0.65609 1.689606,-1.14477 0.474717,-0.47472 0.851611,-1.03314 1.130855,-1.67541 0.279245,-0.64226 0.418993,-1.3266 0.418993,-2.05264 0,-0.72604 -0.139748,-1.41009 -0.418993,-2.05235 -0.279244,-0.64227 -0.656138,-1.20065 -1.130855,-1.68933 -0.488678,-0.47471 -1.047343,-0.85189 -1.689606,-1.13113 -0.642264,-0.27925 -1.326318,-0.41871 -2.052355,-0.41871 z m -16.182218,0.18152 c -0.09774,0 -0.167665,0.0279 -0.237477,0.0977 -0.06981,0.0698 -0.09772,0.13945 -0.09772,0.23718 v 9.5502 c 0,0.0977 0.02791,0.16767 0.09772,0.23748 0.06981,0.0698 0.139741,0.0977 0.237477,0.0977 h 2.080478 c 0.09774,0 0.167381,-0.0279 0.237192,-0.0977 0.06981,-0.0698 0.09772,-0.13974 0.09772,-0.23748 v -4.99837 c 0,-0.0977 0.02791,-0.15364 0.09772,-0.1676 0.05585,-0.014 0.111749,0.0279 0.167598,0.0977 l 3.644244,5.12421 c 0.05585,0.0698 0.139457,0.13959 0.237193,0.19544 0.09774,0.0559 0.195701,0.0838 0.293437,0.0838 h 2.066274 c 0.09774,0 0.167666,-0.0279 0.237477,-0.0977 0.06981,-0.0698 0.09772,-0.13974 0.09772,-0.23748 v -9.5502 c 0,-0.0977 -0.02791,-0.16737 -0.09772,-0.23718 -0.06981,-0.0698 -0.139741,-0.0977 -0.237477,-0.0977 h -2.066274 c -0.09774,0 -0.167666,0.0279 -0.237477,0.0977 -0.06981,0.0698 -0.09772,0.13945 -0.09772,0.23718 v 4.99866 c 0,0.0977 -0.02795,0.13943 -0.0838,0.15339 -0.06981,0.014 -0.125668,-0.0279 -0.181517,-0.0977 l -3.630041,-5.12393 c -0.05585,-0.0698 -0.139741,-0.13959 -0.237476,-0.19543 -0.09774,-0.0419 -0.195418,-0.0699 -0.293154,-0.0699 z m 22.339567,0 c -0.12566,0 -0.195306,0.0418 -0.237192,0.12555 -0.04189,0.0838 -0.04189,0.1815 0,0.27923 l 4.216347,9.50844 c 0.04189,0.0838 0.111903,0.15351 0.209638,0.20936 0.08377,0.0698 0.16758,0.0977 0.265315,0.0977 h 1.85692 c 0.09774,0 0.181499,-0.0279 0.279234,-0.0977 0.08377,-0.0558 0.153548,-0.12558 0.195435,-0.20936 l 4.258389,-9.56411 c 0.04189,-0.0698 0.02797,-0.1537 -0.01392,-0.23748 -0.04189,-0.0698 -0.125538,-0.11163 -0.223274,-0.11163 H 63.528 c -0.09774,0 -0.181541,0.028 -0.265315,0.0838 -0.09774,0.0698 -0.167752,0.13949 -0.209638,0.22326 l -2.443226,5.61281 c -0.04189,0.0838 -0.111706,0.12583 -0.181517,0.12583 -0.06981,0 -0.139629,-0.0421 -0.181516,-0.12583 l -2.457429,-5.61281 c -0.04189,-0.0838 -0.111662,-0.15345 -0.195436,-0.22326 -0.09774,-0.0558 -0.181497,-0.0838 -0.279233,-0.0838 z m 12.482297,0 c -0.09774,0 -0.167665,0.0279 -0.237477,0.0977 -0.06981,0.0698 -0.09772,0.13945 -0.09772,0.23718 v 9.5502 c 0,0.0977 0.02791,0.16767 0.09772,0.23748 0.06981,0.0698 0.139741,0.0977 0.237477,0.0977 h 7.106691 c 0.09774,0 0.167662,-0.0279 0.237474,-0.0977 0.06981,-0.0698 0.09772,-0.13974 0.09772,-0.23748 v -1.9268 c 0,-0.0977 -0.02792,-0.16738 -0.09772,-0.23719 -0.06981,-0.0698 -0.139738,-0.0977 -0.237474,-0.0977 h -4.342188 c -0.09774,0 -0.167382,-0.0279 -0.237193,-0.0977 -0.06981,-0.0698 -0.09801,-0.13975 -0.09801,-0.23748 v -0.53063 c 0,-0.0977 0.0282,-0.16738 0.09801,-0.23719 0.06981,-0.0698 0.139457,-0.0977 0.237193,-0.0977 h 3.783719 c 0.09774,0 0.167663,-0.0279 0.237474,-0.0977 0.06981,-0.0698 0.09772,-0.13974 0.09772,-0.23748 v -1.92679 c 0,-0.0977 -0.02792,-0.16767 -0.09772,-0.23748 -0.06981,-0.0698 -0.139738,-0.0977 -0.237474,-0.0977 h -3.783719 c -0.09774,0 -0.167382,-0.0279 -0.237193,-0.0977 -0.06981,-0.0698 -0.09801,-0.13945 -0.09801,-0.23719 v -0.58659 c 0,-0.0977 0.0282,-0.16738 0.09801,-0.23719 0.06981,-0.0698 0.139457,-0.0977 0.237193,-0.0977 h 4.342188 c 0.09774,0 0.167662,-0.0279 0.237474,-0.0977 0.06981,-0.0698 0.09772,-0.13974 0.09772,-0.23748 v -1.89896 c 0,-0.0977 -0.02792,-0.16737 -0.09772,-0.23718 -0.06981,-0.0698 -0.139738,-0.0977 -0.237474,-0.0977 z m 9.536279,0 c -0.09774,0 -0.181625,0.0279 -0.237474,0.0977 -0.06981,0.0698 -0.09772,0.13945 -0.09772,0.23718 v 9.5502 c 0,0.0977 0.02792,0.16767 0.09772,0.23748 0.05585,0.0698 0.139738,0.0977 0.237474,0.0977 h 6.967214 c 0.09774,0 0.167382,-0.0279 0.237194,-0.0977 0.06981,-0.0698 0.09771,-0.13974 0.09771,-0.23748 v -1.89867 c 0,-0.0977 -0.02792,-0.16767 -0.09771,-0.23748 -0.06981,-0.0698 -0.139458,-0.0977 -0.237194,-0.0977 h -4.202713 c -0.09774,0 -0.181625,-0.0279 -0.237474,-0.0977 -0.06981,-0.0698 -0.09772,-0.13974 -0.09772,-0.23748 v -6.98113 c 0,-0.0977 -0.02793,-0.16737 -0.09772,-0.23718 -0.06981,-0.0698 -0.139458,-0.0977 -0.237193,-0.0977 z m 8.167947,0 c -0.09774,0 -0.167663,0.0279 -0.237474,0.0977 -0.06981,0.0698 -0.09772,0.13945 -0.09772,0.23718 v 1.89896 c 0,0.0977 0.02792,0.16767 0.09772,0.23748 0.06981,0.0698 0.139738,0.0977 0.237474,0.0977 h 1.982477 c 0.09774,0 0.181586,0.0279 0.251397,0.0977 0.05585,0.0698 0.0838,0.13945 0.0838,0.23719 v 6.98113 c 0,0.0977 0.02792,0.16767 0.09772,0.23748 0.06981,0.0698 0.139739,0.0977 0.237474,0.0977 h 2.094115 c 0.09774,0 0.181586,-0.0279 0.251398,-0.0977 0.05585,-0.0698 0.08379,-0.13974 0.08379,-0.23748 v -6.98113 c 0,-0.0977 0.02792,-0.16738 0.09772,-0.23719 0.06981,-0.0698 0.139739,-0.0977 0.237474,-0.0977 h 1.954641 c 0.09774,0 0.181586,-0.0279 0.251397,-0.0977 0.05585,-0.0698 0.0838,-0.13974 0.0838,-0.23748 v -1.89896 c 0,-0.0146 -0.0049,-0.0252 -0.0063,-0.0386 0.0067,0.0368 0.01622,0.0728 0.03408,0.10851 0.572453,0.97736 1.158874,1.9268 1.745284,2.8483 0.572452,0.92151 1.145037,1.85707 1.703528,2.82046 0.04189,0.0698 0.08367,0.1675 0.125556,0.29316 0.02792,0.12566 0.04178,0.23746 0.04178,0.33519 v 3.18321 c 0,0.0977 0.02792,0.16767 0.09772,0.23747 0.06981,0.0698 0.139744,0.0977 0.237479,0.0977 h 2.108305 c 0.0977,0 0.16767,-0.0279 0.23748,-0.0977 0.0698,-0.0698 0.0977,-0.13973 0.0977,-0.23747 v -3.19713 c 0,-0.0977 0.0138,-0.19561 0.0557,-0.32127 0.0419,-0.12566 0.0839,-0.22331 0.12583,-0.30708 l 3.490574,-5.65484 c 0.0698,-0.12566 0.0976,-0.22333 0.0557,-0.29315 -0.0419,-0.0698 -0.11162,-0.0977 -0.20935,-0.0977 h -2.51311 c -0.0977,0 -0.18178,0.0279 -0.27952,0.0838 -0.0977,0.0558 -0.181394,0.12558 -0.223274,0.20935 l -1.70325,2.98806 c -0.0419,0.0698 -0.0978,0.11164 -0.16759,0.11164 -0.0698,0 -0.12571,-0.0418 -0.1676,-0.11164 l -1.717441,-2.98806 c -0.04189,-0.0838 -0.111616,-0.1535 -0.209351,-0.20935 -0.09774,-0.0559 -0.195423,-0.0838 -0.293158,-0.0838 h -2.485267 c -0.09774,0 -0.153591,0.0418 -0.181515,0.12556 -0.01281,0.0448 -0.01457,0.0864 -0.0111,0.12669 -0.01094,-0.0622 -0.03177,-0.11724 -0.07272,-0.16845 -0.06981,-0.0698 -0.153662,-0.0977 -0.251398,-0.0977 z m -36.343872,2.48526 c 0.349056,0 0.67029,0.0697 0.97746,0.20935 0.30717,0.15359 0.572505,0.33504 0.809864,0.57239 0.237358,0.23736 0.418888,0.51657 0.544549,0.8377 0.12566,0.32113 0.195435,0.65624 0.195435,1.0053 0,0.34906 -0.06977,0.68417 -0.195435,1.0053 -0.125661,0.32113 -0.307191,0.60035 -0.544549,0.8377 -0.237359,0.23736 -0.502694,0.43305 -0.809864,0.57268 -0.30717,0.15358 -0.628404,0.22327 -0.97746,0.22327 -0.349057,0 -0.670008,-0.0697 -0.977177,-0.22327 -0.30717,-0.13963 -0.572549,-0.33532 -0.795945,-0.57268 -0.237358,-0.23735 -0.418888,-0.51657 -0.544549,-0.8377 -0.12566,-0.32113 -0.195435,-0.65624 -0.195435,-1.0053 0,-0.34906 0.06977,-0.68417 0.195435,-1.0053 0.125661,-0.32113 0.307191,-0.60034 0.544549,-0.8377 0.223396,-0.23735 0.488775,-0.4188 0.795945,-0.57239 0.307169,-0.13962 0.62812,-0.20935 0.977177,-0.20935 z" style="font-size:25.4px;line-height:1;font-family:Heavitas;-inkscape-font-specification:Heavitas;letter-spacing:0;word-spacing:0;text-orientation:upright;display:inline;fill:#fff;stroke-width:4.23333;stroke-linecap:round;stroke-linejoin:round;stroke-miterlimit:128;paint-order:stroke fill markers"/></svg>
